X: 1627
T: Anne MacNamara
R: strathspey
M: 4/4
K: Amajor
|:C<E A>E F>E A<E|C<E A>c e>f e>c|f>a e<c B>A B<c|F<D E>C B,/B,/B, B,>D|
C<E A>E F>E A<E|C<E A>c e>f e>c|f>a e<c B>A B<c|1 F<D E>C A,/A,/A, A,>D:|2 F<D E>C A,/A,/A, A,>B||
|:A>c e>c e<f e>c|e>f a>e f/e/f/g/ a>e|f<d e>c e>f a>e|f<b e<c B/B/B B<c|
A>c e>c e<f e>c|e>f a>e f/e/f/g/ a>e|f<d e>c e>f a>e|1 f<a e<c A2 A<B:|2 f<a e<c A2 A2||

